web/ui/src/components/theme/message-box/svgs/warning.svg

<svg height="24" viewBox="0 0 24 24" width="24" xmlns="http://www.w3.org/2000/svg"><g fill="none"><path d="m0 0h24v24h-24z" fill="#000" opacity="0"/><g fill="#fa8c16"><path d="m11.9683594 22.546875c-5.7667969 0-10.48476565-4.7282813-10.48476565-10.5070312 0-5.77875005 4.71796875-10.50679692 10.48476565-10.50679692 5.7667968 0 10.4847656 4.72804687 10.4847656 10.50679692 0 5.77875-4.7182031 10.5070312-10.4847656 10.5070312zm3.3832031-2.4466406c2.0954815-.8973484 3.7634654-2.5692788 4.6558594-4.666875.9171753-2.1693859.9171753-4.6176454 0-6.78703127-.8921889-2.0977345-2.5602392-3.76973129-4.6558594-4.666875-2.1615444-.91813387-4.6034556-.91813387-6.765 0-2.09627523.89666155-3.76492677 2.56875604-4.65726562 4.666875-.91717531 2.16938587-.91717531 4.61764537 0 6.78703127.89228282 2.0978591 2.56063735 3.7698244 4.6565625 4.6666406 2.16157732.9179718 4.60342262.9179718 6.76500002 0z"/><path d="m11.109375 14.6367188v-7.92187505c0-.5859375.2929688-.87890625.8789062-.87890625.5859376 0 .8789063.29296875.8789063.87890625v7.92187505c0 .5859374-.2929687.8789062-.8789063.8789062-.5859374 0-.8789062-.2929688-.8789062-.8789062z"/><path d="m11.1796875 17.3789062c0 .4854066.3934997.8789063.8789063.8789063.4854065 0 .8789062-.3934997.8789062-.8789063 0-.4854065-.3934997-.8789062-.8789062-.8789062-.4854066 0-.8789063.3934997-.8789063.8789062z"/></g></g></svg>

<?xml version="1.0" encoding="UTF-8"?>
<svg width="24px" height="24px" viewBox="0 0 24 24" version="1.1" xmlns="http://www.w3.org/2000/svg" xmlns:xlink="http://www.w3.org/1999/xlink">
    <title>mag_icon_jingao_default</title>
    <g id="页面-1" stroke="none" stroke-width="1" fill="none" fill-rule="evenodd">
        <g id="系统设计规范" transform="translate(-1426.000000, -5457.000000)" fill-rule="nonzero">
            <g id="警告" transform="translate(1426.000000, 5457.000000)">
                <rect id="矩形" fill="#000000" opacity="0" x="0" y="0" width="24" height="24"></rect>
                <path d="M11.9683594,22.546875 C6.2015625,22.546875 1.48359375,17.8185937 1.48359375,12.0398438 C1.48359375,6.26109375 6.2015625,1.53304688 11.9683594,1.53304688 C17.7351562,1.53304688 22.453125,6.26109375 22.453125,12.0398438 C22.453125,17.8185938 17.7349219,22.546875 11.9683594,22.546875 Z M15.3515625,20.1002344 C17.447044,19.202886 19.1150279,17.5309556 20.0074219,15.4333594 C20.9245972,13.2639735 20.9245972,10.815714 20.0074219,8.64632813 C19.115233,6.54859363 17.4471827,4.87659684 15.3515625,3.97945313 C13.1900181,3.06131926 10.7481069,3.06131926 8.5865625,3.97945313 C6.49028727,4.87611468 4.82163573,6.54820917 3.92929688,8.64632813 C3.01212157,10.815714 3.01212157,13.2639735 3.92929688,15.4333594 C4.8215797,17.5312185 6.48993423,19.2031838 8.58585938,20.1 C10.7474367,21.0179718 13.189282,21.0179718 15.3508594,20.1 L15.3515625,20.1002344 Z" id="形状" fill="#FA8C16"></path>
                <path d="M11.109375,14.6367188 L11.109375,6.71484375 C11.109375,6.12890625 11.4023438,5.8359375 11.9882812,5.8359375 L11.9882812,5.8359375 C12.5742188,5.8359375 12.8671875,6.12890625 12.8671875,6.71484375 L12.8671875,14.6367188 C12.8671875,15.2226562 12.5742188,15.515625 11.9882812,15.515625 L11.9882812,15.515625 C11.4023438,15.515625 11.109375,15.2226562 11.109375,14.6367188 Z" id="路径" fill="#FA8C16"></path>
                <path d="M11.1796875,17.3789062 C11.1796875,17.8643128 11.5731872,18.2578125 12.0585938,18.2578125 C12.5440003,18.2578125 12.9375,17.8643128 12.9375,17.3789062 C12.9375,16.8934997 12.5440003,16.5 12.0585938,16.5 C11.5731872,16.5 11.1796875,16.8934997 11.1796875,17.3789062 Z" id="路径" fill="#FA8C16"></path>
            </g>
        </g>
    </g>
</svg>
